X:1
T:Bold Dickie
M:6/8
L:1/8
K:Eb
 B| B2 B B2 A| G3/2 F/2 G E3| e2 c f2 e|d-c d B2 B|c-d e G2 F| GGE A2 B|\
 cde G2 A| GGF G2||

